htdocs/img/pokeball-special.svg

<svg fill="none" height="187" viewBox="0 0 186 187" width="186" xmlns="http://www.w3.org/2000/svg"><circle cx="92.6389" cy="93.5305" fill="#2b2a29" fill-opacity=".27" r="92.6389"/><path d="m92.4941 176.962c46.0709 0 83.4189-37.348 83.4189-83.419 0-46.0711-37.348-83.4191-83.4189-83.4191-46.0711 0-83.41915 37.348-83.41915 83.4191 0 46.071 37.34805 83.419 83.41915 83.419z" fill="#ac2421"/><path d="m92.494 170.981c42.768 0 77.438-34.67 77.438-77.438 0-42.7678-34.67-77.438-77.438-77.438-42.7678 0-77.4379 34.6702-77.4379 77.438 0 42.768 34.6701 77.438 77.4379 77.438z" fill="#c92223"/><path d="m92.4941 165c39.4649 0 71.4569-31.993 71.4569-71.457 0-39.4645-31.992-71.4568-71.4569-71.4568-39.4645 0-71.4568 31.9923-71.4568 71.4568 0 39.464 31.9923 71.457 71.4568 71.457z" fill="#c92223"/><path d="m92.4941 159.021c36.1629 0 65.4779-29.315 65.4779-65.478 0-36.1626-29.315-65.4782-65.4779-65.4782-36.1626 0-65.4782 29.3156-65.4782 65.4782 0 36.163 29.3156 65.478 65.4782 65.478z" fill="#e63739"/><g clip-rule="evenodd" fill-rule="evenodd"><path d="m147.585 157.621c-14.661 12.242-33.53 19.613-54.1224 19.613-42.0003 0-76.8363-30.642-83.3891-70.79 10.3921 10.484 25.5572 19.072 43.628 24.514 1.0734 7.988 6.0285 15.377 13.8844 19.304 12.4915 6.245 27.5792 1.378 33.7031-10.867.342-.684.646-1.375.918-2.074 28.578-.652 53.905-8.837 70.723-21.583l-.002.002-27.29 40.69z" fill="#5b5b5b"/><path d="m174.475 114.667c-9.386 36.438-42.467 63.364-81.8362 63.364-41.9978 0-76.8363-30.643-83.3866-70.791 10.3896 10.485 25.5572 19.072 43.628 24.516 1.0734 7.989 6.0285 15.375 13.8844 19.302 12.489 6.246 27.5792 1.38 33.7024-10.867.34-.683.644-1.375.916-2.071 29.954-.684 56.332-9.641 73.092-23.453z" fill="#f3f3f3"/><path d="m166.807 124.932c-18.52 11.161-41.691 16.276-62.8 17.094-7.2093 14.347-24.7609 19.731-39.0248 12.599-7.9282-3.964-13.6523-11.218-15.5944-19.778-11.6677-3.74-23.3779-9.184-33.3856-16.563 10.5469 32.766 41.3014 55.76 76.6366 55.76 32.6912 0 61.7432-19.731 74.1682-49.112z" fill="#ebecec"/><path d="m157.448 134.278c-15.996 7.129-34.035 10.734-51.027 11.63-8.792 14.736-27.7065 20.04-43.2236 12.284-8.3027-4.151-14.4736-11.49-17.1097-20.235-7.3516-2.479-14.6658-5.619-21.5531-9.468 12.8086 24.928 38.8026 41.568 68.1043 41.568 26.8281 0 51.0821-13.981 64.8091-35.779z" fill="#f3f3f3"/><path d="m29.2576 121.983c7.0821 3.88 15.0228 7.182 23.6226 9.773 1.0734 7.989 6.0286 15.375 13.8844 19.302 12.4891 6.246 27.5792 1.38 33.7024-10.867.34-.684.644-1.375.916-2.071 18.403-.422 35.455-3.965 49.759-9.838-10.057 24.955-33.061 42.402-59.8362 42.402-28.9771 0-53.5358-20.432-62.0482-48.701z" fill="#ebecec"/><path d="m174.99 104.677c-16.426 13.797-42.383 22.851-71.959 23.829-.262-8.944-5.4045-17.524-14.0942-21.867-12.4915-6.246-27.5792-1.381-33.7026 10.866-.7889 1.578-1.388 3.203-1.8123 4.845-18.2805-5.424-33.6303-14.061-44.12228-24.6282v1.2257c11.87248 11.6755 28.12338 19.5615 43.87508 24.2365l.8637.255.2247-.871c.4144-1.616 1.001-3.183 1.7474-4.674 5.9937-11.989 20.6545-16.42 32.5369-10.479 8.0581 4.027 13.3506 12.107 13.6146 21.116l.025.871.871-.027c14.317-.474 28.81-2.856 42.36-7.564 10.51-3.649 20.922-8.882 29.572-16.004z" fill="#5b5b5b"/><path d="m92.6389 9.03052c46.6681 0 84.5001 37.83158 84.5001 84.49998 0 3.3351-.2 6.6225-.574 9.8555-16.316 14.561-42.994 24.184-73.534 25.193-.262-8.942-5.4045-17.524-14.0942-21.868-12.4915-6.246-27.5792-1.38-33.7026 10.866-.7888 1.578-1.388 3.203-1.8123 4.846-18.9295-5.617-34.7137-14.679-45.21814-25.7571-.03994-1.041-.06491-2.0844-.06491-3.1354 0-46.6684 37.83155-84.49998 84.50005-84.49998z" fill="#f3f3f3"/><path d="m50.9006 117.46c.2397-.564.4943-1.118.7664-1.665 7.1944-14.386 24.7684-19.7906 39.0522-12.651 8.4351 4.219 14.3268 12.147 15.8938 21.281 22.799-1.326 48.636-8.073 66.152-23.016.257-2.6188.387-5.2474.387-7.8785 0-44.4667-36.046-80.5134-80.5131-80.5134-44.4667 0-80.5134 36.0467-80.5134 80.5134 0 .4893.0075.9811.0175 1.4703 10.4245 10.4992 24.6959 17.8362 38.7576 22.4592z" fill="#f3f3f3"/><path d="m48.8811 112.547c8.6098-15.2545 27.8663-20.8463 43.6205-12.9679 8.4724 4.2339 14.6784 11.7729 17.2294 20.6319 20.532-1.672 43.284-7.883 59.208-20.8042.149-1.9546.227-3.9142.227-5.8763 0-42.2675-34.26-76.5268-76.5271-76.5268-42.1926 0-76.407 34.142-76.5243 76.3071 9.0291 8.6502 20.8866 14.9652 32.7665 19.2362z" fill="#ebecec"/><path d="m47.2385 107.675c10.3472-14.8734 30.425-19.9734 47.0479-11.6632 8.4596 4.2292 14.8926 11.4002 18.2106 19.9382 18.315-1.895 38.196-7.534 52.577-18.5727.07-1.2806.105-2.5637.105-3.8468 0-40.0657-32.474-72.5377-72.5402-72.5377-39.4192 0-71.4917 31.4335-72.5127 70.608 7.6687 6.9473 17.3144 12.2472 27.1124 16.0742z" fill="#f3f3f3"/><path d="m154.6 117.3c-14.564 6.576-32.297 10.642-51.569 11.279-.262-8.942-5.4045-17.524-14.0941-21.868-12.4916-6.246-27.5792-1.38-33.7027 10.866-.7888 1.578-1.3879 3.203-1.8123 4.846-9.798-2.906-18.7523-6.738-26.5707-11.294-.5217-3.589-.7938-7.271-.7938-11.018 0-38.9801 29.2118-70.5758 65.2485-70.5758 36.0341 0 65.2461 31.5957 65.2461 70.5758 0 5.929-.679 11.688-1.952 17.189z" fill="#ebecec"/></g><path d="m69.3597 144.62c8.7722 4.386 19.3694.968 23.6694-7.633s.6745-19.128-8.0977-23.514c-8.7723-4.386-19.3695-.968-23.6695 7.633-4.3 8.6-.6745 19.128 8.0978 23.514z" fill="#5b5b5b"/><path d="m69.3623 144.268c8.4425 4.221 18.6412.932 22.7795-7.345 4.1384-8.278.6492-18.41-7.7932-22.63-8.4425-4.221-18.6412-.933-22.7795 7.345-4.1384 8.278-.6492 18.409 7.7932 22.63z" fill="#ebecec"/><path clip-rule="evenodd" d="m77.1418 146.108h-.015c-.1298 0-.2621 0-.3919-.003-2.359-.055-4.753-.649-7.0121-1.837-8.0382-4.221-11.3607-14.351-7.4191-22.629 2.7684-5.819 8.3876-9.174 14.2739-9.186h.005c.1323 0 .2621 0 .3944.005 2.359.054 4.7505.646 7.0122 1.834 8.0381 4.222 11.3582 14.354 7.419 22.632-2.7684 5.814-8.3826 9.169-14.2664 9.184z" fill="#fefefe" fill-rule="evenodd"/><path clip-rule="evenodd" d="m77.1418 146.108h-.015c-.1298 0-.2621 0-.3919-.003-2.359-.055-4.753-.649-7.0121-1.837-8.0382-4.221-11.3607-14.351-7.4191-22.629 2.7684-5.819 8.3876-9.174 14.2739-9.186h.005c.1323 0 .2621 0 .3944.005 2.359.054 4.7505.646 7.0122 1.834 1.8497.971 3.4498 2.257 4.7704 3.762 3.717 6.176 4.3835 14.099 1.0909 21.014-.2372.497-.4893.979-.7564 1.446-3.0355 3.584-7.414 5.581-11.9523 5.594z" fill="#f3f3f3" fill-rule="evenodd"/><path d="m71.5206 140.677c5.3872 2.694 11.8951.595 14.5358-4.687 2.6406-5.282.4142-11.747-4.973-14.44-5.3871-2.694-11.895-.595-14.5357 4.687s-.4142 11.747 4.9729 14.44z" fill="#5b5b5b"/><path d="m71.6655 140.031c4.8968 2.448 10.8124.541 13.2127-4.261 2.4004-4.801.3766-10.678-4.5203-13.126-4.8968-2.448-10.8124-.54-13.2127 4.261-2.4004 4.801-.3765 10.678 4.5203 13.126z" fill="#fefefe"/><path d="m72.2953 140.05c4.68 2.404 10.3335.531 12.6276-4.182 2.294-4.714.3598-10.484-4.3201-12.887-4.68-2.404-10.3336-.531-12.6276 4.183-2.294 4.713-.3599 10.483 4.3201 12.886z" fill="#d9dada"/><path clip-rule="evenodd" d="m80.6017 122.979c2.017 1.036 3.5223 2.696 4.401 4.629.5666 2.344.3594 4.882-.7639 7.194-2.0869 4.289-6.6876 6.455-11.1385 5.617-.2696-.11-.5392-.233-.8038-.367-4.6806-2.404-6.6152-8.176-4.3211-12.889s7.9482-6.587 12.6263-4.184z" fill="#ebecec" fill-rule="evenodd"/></svg>

<svg width="186" height="187" viewBox="0 0 186 187" fill="none" xmlns="http://www.w3.org/2000/svg">
<circle cx="92.6389" cy="93.5305" r="92.6389" fill="#2B2A29" fill-opacity="0.27"/>
<path d="M92.4941 176.962C138.565 176.962 175.913 139.614 175.913 93.543C175.913 47.4719 138.565 10.1239 92.4941 10.1239C46.423 10.1239 9.07495 47.4719 9.07495 93.543C9.07495 139.614 46.423 176.962 92.4941 176.962Z" fill="#AC2421"/>
<path d="M92.494 170.981C135.262 170.981 169.932 136.311 169.932 93.543C169.932 50.7752 135.262 16.105 92.494 16.105C49.7262 16.105 15.0561 50.7752 15.0561 93.543C15.0561 136.311 49.7262 170.981 92.494 170.981Z" fill="#C92223"/>
<path d="M92.4941 165C131.959 165 163.951 133.007 163.951 93.543C163.951 54.0785 131.959 22.0862 92.4941 22.0862C53.0296 22.0862 21.0373 54.0785 21.0373 93.543C21.0373 133.007 53.0296 165 92.4941 165Z" fill="#C92223"/>
<path d="M92.4941 159.021C128.657 159.021 157.972 129.706 157.972 93.543C157.972 57.3804 128.657 28.0648 92.4941 28.0648C56.3315 28.0648 27.0159 57.3804 27.0159 93.543C27.0159 129.706 56.3315 159.021 92.4941 159.021Z" fill="#E63739"/>
<path fill-rule="evenodd" clip-rule="evenodd" d="M147.585 157.621C132.924 169.863 114.055 177.234 93.4626 177.234C51.4623 177.234 16.6263 146.592 10.0735 106.444C20.4656 116.928 35.6307 125.516 53.7015 130.958C54.7749 138.946 59.73 146.335 67.5859 150.262C80.0774 156.507 95.1651 151.64 101.289 139.395C101.631 138.711 101.935 138.02 102.207 137.321C130.785 136.669 156.112 128.484 172.93 115.738L172.928 115.74L145.638 156.43L147.585 157.621V157.621Z" fill="#5B5B5B"/>
<path fill-rule="evenodd" clip-rule="evenodd" d="M174.475 114.667C165.089 151.105 132.008 178.031 92.6388 178.031C50.641 178.031 15.8025 147.388 9.2522 107.24C19.6418 117.725 34.8094 126.312 52.8802 131.756C53.9536 139.745 58.9087 147.131 66.7646 151.058C79.2536 157.304 94.3438 152.438 100.467 140.191C100.807 139.508 101.111 138.816 101.383 138.12C131.337 137.436 157.715 128.479 174.475 114.667V114.667Z" fill="#F3F3F3"/>
<path fill-rule="evenodd" clip-rule="evenodd" d="M166.807 124.932C148.287 136.093 125.116 141.208 104.007 142.026C96.7977 156.373 79.2461 161.757 64.9822 154.625C57.054 150.661 51.3299 143.407 49.3878 134.847C37.7201 131.107 26.0099 125.663 16.0022 118.284C26.5491 151.05 57.3036 174.044 92.6388 174.044C125.33 174.044 154.382 154.313 166.807 124.932V124.932Z" fill="#EBECEC"/>
<path fill-rule="evenodd" clip-rule="evenodd" d="M157.448 134.278C141.452 141.407 123.413 145.012 106.421 145.908C97.629 160.644 78.7145 165.948 63.1974 158.192C54.8947 154.041 48.7238 146.702 46.0877 137.957C38.7361 135.478 31.4219 132.338 24.5346 128.489C37.3432 153.417 63.3372 170.057 92.6389 170.057C119.467 170.057 143.721 156.076 157.448 134.278Z" fill="#F3F3F3"/>
<path fill-rule="evenodd" clip-rule="evenodd" d="M29.2576 121.983C36.3397 125.863 44.2804 129.165 52.8802 131.756C53.9536 139.745 58.9088 147.131 66.7646 151.058C79.2537 157.304 94.3438 152.438 100.467 140.191C100.807 139.507 101.111 138.816 101.383 138.12C119.786 137.698 136.838 134.155 151.142 128.282C141.085 153.237 118.081 170.684 91.3058 170.684C62.3287 170.684 37.77 150.252 29.2576 121.983V121.983Z" fill="#EBECEC"/>
<path fill-rule="evenodd" clip-rule="evenodd" d="M174.99 104.677C158.564 118.474 132.607 127.528 103.031 128.506C102.769 119.562 97.6265 110.982 88.9368 106.639C76.4453 100.393 61.3576 105.258 55.2342 117.505C54.4453 119.083 53.8462 120.708 53.4219 122.35C35.1414 116.926 19.7916 108.289 9.29962 97.7218V98.9475C21.1721 110.623 37.423 118.509 53.1747 123.184L54.0384 123.439L54.2631 122.568C54.6775 120.952 55.2641 119.385 56.0105 117.894C62.0042 105.905 76.665 101.474 88.5474 107.415C96.6055 111.442 101.898 119.522 102.162 128.531L102.187 129.402L103.058 129.375C117.375 128.901 131.868 126.519 145.418 121.811C155.928 118.162 166.34 112.929 174.99 105.807V104.677V104.677Z" fill="#5B5B5B"/>
<path fill-rule="evenodd" clip-rule="evenodd" d="M92.6389 9.03052C139.307 9.03052 177.139 46.8621 177.139 93.5305C177.139 96.8656 176.939 100.153 176.565 103.386C160.249 117.947 133.571 127.57 103.031 128.579C102.769 119.637 97.6265 111.055 88.9368 106.711C76.4453 100.465 61.3576 105.331 55.2342 117.577C54.4454 119.155 53.8462 120.78 53.4219 122.423C34.4924 116.806 18.7082 107.744 8.20376 96.6659C8.16382 95.6249 8.13885 94.5815 8.13885 93.5305C8.13885 46.8621 45.9704 9.03052 92.6389 9.03052V9.03052Z" fill="#F3F3F3"/>
<path fill-rule="evenodd" clip-rule="evenodd" d="M50.9006 117.46C51.1403 116.896 51.3949 116.342 51.667 115.795C58.8614 101.409 76.4354 96.0044 90.7192 103.144C99.1543 107.363 105.046 115.291 106.613 124.425C129.412 123.099 155.249 116.352 172.765 101.409C173.022 98.7902 173.152 96.1616 173.152 93.5305C173.152 49.0638 137.106 13.0171 92.6389 13.0171C48.1722 13.0171 12.1255 49.0638 12.1255 93.5305C12.1255 94.0198 12.133 94.5116 12.143 95.0008C22.5675 105.5 36.8389 112.837 50.9006 117.46Z" fill="#F3F3F3"/>
<path fill-rule="evenodd" clip-rule="evenodd" d="M48.8811 112.547C57.4909 97.2925 76.7474 91.7007 92.5016 99.5791C100.974 103.813 107.18 111.352 109.731 120.211C130.263 118.539 153.015 112.328 168.939 99.4068C169.088 97.4522 169.166 95.4926 169.166 93.5305C169.166 51.263 134.906 17.0037 92.6389 17.0037C50.4463 17.0037 16.2319 51.1457 16.1146 93.3108C25.1437 101.961 37.0012 108.276 48.8811 112.547V112.547Z" fill="#EBECEC"/>
<path fill-rule="evenodd" clip-rule="evenodd" d="M47.2385 107.675C57.5857 92.8016 77.6635 87.7016 94.2864 96.0118C102.746 100.241 109.179 107.412 112.497 115.95C130.812 114.055 150.693 108.416 165.074 97.3773C165.144 96.0967 165.179 94.8136 165.179 93.5305C165.179 53.4648 132.705 20.9928 92.6388 20.9928C53.2196 20.9928 21.1471 52.4263 20.1261 91.6008C27.7948 98.5481 37.4405 103.848 47.2385 107.675V107.675Z" fill="#F3F3F3"/>
<path fill-rule="evenodd" clip-rule="evenodd" d="M154.6 117.3C140.036 123.876 122.303 127.942 103.031 128.579C102.769 119.637 97.6265 111.055 88.9369 106.711C76.4453 100.465 61.3577 105.331 55.2342 117.577C54.4454 119.155 53.8463 120.78 53.4219 122.423C43.6239 119.517 34.6696 115.685 26.8512 111.129C26.3295 107.54 26.0574 103.858 26.0574 100.111C26.0574 61.1309 55.2692 29.5352 91.3059 29.5352C127.34 29.5352 156.552 61.1309 156.552 100.111C156.552 106.04 155.873 111.799 154.6 117.3V117.3Z" fill="#EBECEC"/>
<path d="M69.3597 144.62C78.1319 149.006 88.7291 145.588 93.0291 136.987C97.3291 128.386 93.7036 117.859 84.9314 113.473C76.1591 109.087 65.5619 112.505 61.2619 121.106C56.9619 129.706 60.5874 140.234 69.3597 144.62Z" fill="#5B5B5B"/>
<path d="M69.3623 144.268C77.8048 148.489 88.0035 145.2 92.1418 136.923C96.2802 128.645 92.791 118.513 84.3486 114.293C75.9061 110.072 65.7074 113.36 61.5691 121.638C57.4307 129.916 60.9199 140.047 69.3623 144.268Z" fill="#EBECEC"/>
<path fill-rule="evenodd" clip-rule="evenodd" d="M77.1418 146.108H77.1268C76.997 146.108 76.8647 146.108 76.7349 146.105C74.3759 146.05 71.9819 145.456 69.7228 144.268C61.6846 140.047 58.3621 129.917 62.3037 121.639C65.0721 115.82 70.6913 112.465 76.5776 112.453H76.5826C76.7149 112.453 76.8447 112.453 76.977 112.458C79.336 112.512 81.7275 113.104 83.9892 114.292C92.0273 118.514 95.3474 128.646 91.4082 136.924C88.6398 142.738 83.0256 146.093 77.1418 146.108V146.108Z" fill="#FEFEFE"/>
<path fill-rule="evenodd" clip-rule="evenodd" d="M77.1418 146.108H77.1268C76.997 146.108 76.8647 146.108 76.7349 146.105C74.3759 146.05 71.9819 145.456 69.7228 144.268C61.6846 140.047 58.3621 129.917 62.3037 121.639C65.0721 115.82 70.6913 112.465 76.5776 112.453H76.5826C76.7149 112.453 76.8447 112.453 76.977 112.458C79.336 112.512 81.7275 113.104 83.9892 114.292C85.8389 115.263 87.439 116.549 88.7596 118.054C92.4766 124.23 93.1431 132.153 89.8505 139.068C89.6133 139.565 89.3612 140.047 89.0941 140.514C86.0586 144.098 81.6801 146.095 77.1418 146.108Z" fill="#F3F3F3"/>
<path d="M71.5206 140.677C76.9078 143.371 83.4157 141.272 86.0564 135.99C88.697 130.708 86.4706 124.243 81.0834 121.55C75.6963 118.856 69.1884 120.955 66.5477 126.237C63.907 131.519 66.1335 137.984 71.5206 140.677Z" fill="#5B5B5B"/>
<path d="M71.6655 140.031C76.5623 142.479 82.4779 140.572 84.8782 135.77C87.2786 130.969 85.2548 125.092 80.3579 122.644C75.4611 120.196 69.5455 122.104 67.1452 126.905C64.7448 131.706 66.7687 137.583 71.6655 140.031Z" fill="#FEFEFE"/>
<path d="M72.2953 140.05C76.9753 142.454 82.6288 140.581 84.9229 135.868C87.2169 131.154 85.2827 125.384 80.6028 122.981C75.9228 120.577 70.2692 122.45 67.9752 127.164C65.6812 131.877 67.6153 137.647 72.2953 140.05Z" fill="#D9DADA"/>
<path fill-rule="evenodd" clip-rule="evenodd" d="M80.6017 122.979C82.6187 124.015 84.124 125.675 85.0027 127.608C85.5693 129.952 85.3621 132.49 84.2388 134.802C82.1519 139.091 77.5512 141.257 73.1003 140.419C72.8307 140.309 72.5611 140.186 72.2965 140.052C67.6159 137.648 65.6813 131.876 67.9754 127.163C70.2695 122.45 75.9236 120.576 80.6017 122.979V122.979Z" fill="#EBECEC"/>
</svg>
